contributed-vectors/ntfy.svg

<?xml version="1.0" encoding="UTF-8" standalone="no"?>
<svg
   viewBox="0 0 192 192"
   version="1.1"
   id="svg16"
   sodipodi:docname="ntfy.svg"
   inkscape:version="1.2.1 (9c6d41e410, 2022-07-14, custom)"
   inkscape:export-filename="png-files/ntfy.png"
   inkscape:export-xdpi="96"
   inkscape:export-ydpi="96"
   xmlns:inkscape="http://www.inkscape.org/namespaces/inkscape"
   xmlns:sodipodi="http://sodipodi.sourceforge.net/DTD/sodipodi-0.dtd"
   xmlns="http://www.w3.org/2000/svg"
   xmlns:svg="http://www.w3.org/2000/svg">
  <sodipodi:namedview
     id="namedview18"
     pagecolor="#ffffff"
     bordercolor="#666666"
     borderopacity="1.0"
     inkscape:showpageshadow="2"
     inkscape:pageopacity="0.0"
     inkscape:pagecheckerboard="0"
     inkscape:deskcolor="#d1d1d1"
     showgrid="false"
     inkscape:zoom="4.0213722"
     inkscape:cx="86.413289"
     inkscape:cy="107.17735"
     inkscape:window-width="1600"
     inkscape:window-height="864"
     inkscape:window-x="0"
     inkscape:window-y="0"
     inkscape:window-maximized="1"
     inkscape:current-layer="svg16" />
  <defs
     id="defs4">
    <style
       id="style2">.a{fill:none;stroke:#b1b5bd;stroke-linecap:round;stroke-linejoin:round;isolation:isolate;opacity:0.63;}</style>
  </defs>
  <g
     id="g31566"
     transform="matrix(1.0470479,0,0,1.0151375,-9.4303526,9.681599)">
    <path
       id="rect14-6"
       style="display:inline;opacity:1;isolation:isolate;fill:#ffffff;fill-opacity:1;stroke:#ffffff;stroke-width:0.923415;stroke-linecap:round;stroke-linejoin:round;stroke-opacity:1"
       class="a"
       d="m 30.007812,21.951172 c -5.164678,0 -9.322265,4.157587 -9.322265,9.322266 v 93.275392 c -0.85045,7.91788 -2.617014,15.73032 -4.050781,23.5625 10.079444,-3.26113 20.497499,-5.51755 30.476562,-9.08399 H 175.43945 c 5.16468,0 9.32227,-4.15758 9.32227,-9.32226 V 31.273438 c 0,-5.164679 -4.15759,-9.322266 -9.32227,-9.322266 z"
       sodipodi:nodetypes="sscccsssss" />
    <path
       id="rect14-6-5"
       style="display:inline;opacity:1;isolation:isolate;fill:#98dc9a;fill-opacity:1;stroke:#98dc9a;stroke-width:0.74757;stroke-linecap:round;stroke-linejoin:round;stroke-opacity:1"
       class="a"
       d="m 41.370465,35.092484 c -4.357641,0 -7.865558,3.229545 -7.865558,7.24139 V 114.7888 c 0.04047,6.4991 0.06705,10.83982 0.170787,17.02964 8.712524,-2.05341 12.952242,-3.2658 22.125673,-5.78294 H 164.07681 c 4.35764,0 7.86557,-3.22956 7.86557,-7.2414 V 42.333874 c 0,-4.011845 -3.50793,-7.24139 -7.86557,-7.24139 z"
       sodipodi:nodetypes="sscccsssss" />
    <path
       id="path18888"
       style="fill:#ffffff;fill-opacity:1;stroke:#ffffff;stroke-width:1.335;stroke-linecap:butt;stroke-linejoin:miter;stroke-dasharray:none;stroke-opacity:1"
       d="M 45.814818,46.183292 V 62.920755 L 77.876691,77.746573 45.814818,92.57239 v 16.73747 L 92.105825,87.901532 V 67.591615 Z" />
    <rect
       style="fill:#ffffff;fill-opacity:1;stroke:#ececec;stroke-width:0;stroke-linecap:round;stroke-linejoin:round;stroke-dasharray:none;paint-order:markers stroke fill"
       id="rect24812"
       width="47.208599"
       height="15.18251"
       x="112.79766"
       y="96.316422" />
  </g>
</svg>

<svg xmlns="http://www.w3.org/2000/svg" id="svg16" version="1.1" viewBox="0 0 192 192"><defs id="defs4"><style id="style2">.a{fill:none;stroke:#b1b5bd;stroke-linecap:round;stroke-linejoin:round;isolation:isolate;opacity:.63}</style></defs><g id="g31566" transform="matrix(1.04705 0 0 1.01514 -9.43 9.682)"><path id="rect14-6" d="M30.008 21.951a9.302 9.302 0 0 0-9.322 9.322v93.276c-.85 7.918-2.617 15.73-4.051 23.562 10.08-3.26 20.497-5.517 30.476-9.084H175.44a9.302 9.302 0 0 0 9.323-9.322V31.273a9.302 9.302 0 0 0-9.323-9.322z" class="a" style="display:inline;opacity:1;isolation:isolate;fill:#fff;fill-opacity:1;stroke:#fff;stroke-width:.923415;stroke-linecap:round;stroke-linejoin:round;stroke-opacity:1"/><path id="rect14-6-5" d="M41.37 35.092c-4.357 0-7.865 3.23-7.865 7.242v72.455c.04 6.499.067 10.84.17 17.03 8.713-2.054 12.953-3.266 22.126-5.783h108.276c4.357 0 7.865-3.23 7.865-7.242v-76.46c0-4.012-3.508-7.242-7.865-7.242z" class="a" style="display:inline;opacity:1;isolation:isolate;fill:#98dc9a;fill-opacity:1;stroke:#98dc9a;stroke-width:.74757;stroke-linecap:round;stroke-linejoin:round;stroke-opacity:1"/><path id="path18888" d="M45.815 46.183v16.738l32.062 14.826-32.062 14.825v16.738l46.29-21.408v-20.31Z" style="fill:#fff;fill-opacity:1;stroke:#fff;stroke-width:1.335;stroke-linecap:butt;stroke-linejoin:miter;stroke-dasharray:none;stroke-opacity:1"/><path id="rect24812" d="M112.798 96.316h47.209v15.183h-47.209z" style="fill:#fff;fill-opacity:1;stroke:#ececec;stroke-width:0;stroke-linecap:round;stroke-linejoin:round;stroke-dasharray:none;paint-order:markers stroke fill"/></g></svg>
